svgs/thin/file-heart.svg

<svg xmlns="http://www.w3.org/2000/svg" viewBox="0 0 384 512"><!--! Font Awesome Pro 6.3.0 by @fontawesome - https://fontawesome.com License - https://fontawesome.com/license (Commercial License) Copyright 2023 Fonticons, Inc. --><path d="M374.6 150.6l-141.3-141.3C227.4 3.371 219.2 0 210.7 0H64C28.65 0 0 28.65 0 64l.0065 384c0 35.34 28.65 64 64 64H320c35.35 0 64-28.66 64-64V173.3C384 164.8 380.6 156.6 374.6 150.6zM224 22.63L361.4 160H248C234.8 160 224 149.2 224 136V22.63zM368 448c0 26.47-21.53 48-48 48H64c-26.47 0-48-21.53-48-48V64c0-26.47 21.53-48 48-48h144v120c0 22.06 17.94 40 40 40h120V448zM194.6 261.3L191.9 264.1L189.2 261.3C164.3 235.6 124.5 232.8 98.42 254.1c-14.58 12.5-23.12 30-24.05 49.31c-.9219 19.12 6.078 37.91 19.22 51.53l83.02 85.59c4.125 4.219 9.594 6.531 15.39 6.531s11.27-2.312 15.42-6.562l82.98-85.56c13.16-13.62 20.16-32.41 19.22-51.53c-.9531-19.34-9.531-36.84-24.17-49.31C259.5 232.9 219.6 235.6 194.6 261.3zM275.1 267.2c11.25 9.562 17.86 23.03 18.58 37.91c.7344 14.72-4.641 29.16-14.73 39.63l-82.95 85.53c-2.156 2.188-5.781 2.156-7.875 .0313l-82.97-85.56C95.01 334.3 89.64 319.8 90.34 305.1c.7187-14.88 7.281-28.34 18.47-37.91c8.797-7.5 19.73-11.16 30.84-11.16c13.64 0 27.55 5.562 38.02 16.38l14.2 14.72l14.19-14.69C225.2 252.7 255.5 250.5 275.1 267.2z"/></svg>

<svg xmlns="http://www.w3.org/2000/svg" viewBox="0 0 384 512"><!-- Font Awesome Pro 6.0.0-alpha2 by @fontawesome - https://fontawesome.com License - https://fontawesome.com/license (Commercial License) --><path d="M374.629 150.625L233.371 9.375C227.371 3.371 219.23 0 210.746 0H64C28.652 0 0 28.652 0 64V448C0 483.344 28.652 512 64 512H320C355.348 512 384 483.344 384 448V173.254C384 164.766 380.629 156.629 374.629 150.625ZM224 22.629L361.375 160H248C234.781 160 224 149.234 224 136V22.629ZM368 448C368 474.469 346.469 496 320 496H64C37.531 496 16 474.469 16 448V64C16 37.531 37.531 16 64 16H208V136C208 158.062 225.938 176 248 176H368V448ZM194.576 261.275L191.873 264.057L189.186 261.275C164.342 235.619 124.451 232.838 98.42 254.994C83.842 267.494 75.295 284.994 74.373 304.307C73.451 323.432 80.451 342.213 93.592 355.838L176.607 441.432C180.732 445.65 186.201 447.963 191.998 447.963S203.264 445.65 207.42 441.4L290.404 355.838C303.561 342.213 310.561 323.432 309.623 304.307C308.67 284.963 300.092 267.463 285.451 254.994C259.529 232.869 219.623 235.557 194.576 261.275ZM275.061 267.182C286.311 276.744 292.92 290.213 293.639 305.088C294.373 319.807 288.998 334.244 278.904 344.713L195.951 430.244C193.795 432.432 190.17 432.4 188.076 430.275L105.107 344.713C95.014 334.275 89.639 319.807 90.342 305.088C91.061 290.213 97.623 276.744 108.811 267.182C117.607 259.682 128.545 256.025 139.654 256.025C153.295 256.025 167.201 261.588 177.67 272.4L191.873 287.119L206.061 272.432C225.217 252.744 255.514 250.463 275.061 267.182Z"/></svg>
